X:1
T:Flavescite, serenate
T:José de Torres y Martinez Bravo [1665-1738]
T:From "Arte de canto llano", 1734 edition.
T:Flavescite, serenate
T:Cantada al Santísimo al estilo italiano
T:Copyright © 
T:Copyright © 
T:Copyright © 
C:José de Torres y Martinez Bravo [1665-1738]
Z:From "Arte de canto llano",
Z:1734 edition.
Z:Copyright ©
%%score [ 1 2 ]
L:1/8
M:3/4
K:F
V:1 treble nm="[Soprano]" snm="S."
V:2 bass nm="Continuo" snm="Cont."
V:1
"^AriaDespacio" z6 | z6 | z6 | z4 f2 | d>c B2 f>_e | dc B2 z2 | z6 | z6 | z4 f2 | d>c B2 f>_e | %10
w: |||Fla-|ves- ci- te, se- re-|na- * te,|||fla-|ves- ci- te se- re-|
 d>c dB cd | G2 z c Bc | A2 z d cd | B2 z _e de | c2 z f _ef | d>c dB cd | _e>d ec de | f6- | %18
w: na- * * * * *||||||||
 f_e fd ef | _e>d ec de | A>G Ac BA | d2 z B cd | G2 z _e dc | dc c3 B | B6 | z2 z2 c2 | %26
w: ||||||te,|fla-|
 A>G F2 f>_e | d>c dB cd | G2 z _e dc | dc c3 B | !fermata!B4 z2 | z6 | z4 d2 | (BA) G2 _e2 | %34
w: ves- ci- te, se- re-|na- * * * * *|||te.||Fu-|ga- * te lac-|
 ^F3 E D2 | z6 | z2 dcdc | B3 A G2 | z6 | z2 GF GF | _ED ED C2 | z6 | z2 cB cB | A>G Ac BA | %44
w: ri- * mas||a- * * *|* ni- mae,||be- * * *|a- * * * tae,||be- * * *||
 B>A Bc BA | G>F GB AG | c>d cB AG | ^F3 E D2 | z6 | d3 c BA | BG G3"^Al principio" ^F | G6 :| %52
w: |a- * * * * *||tae\_a- ni- mae,||a- ni- mae _|be- * a- *|tae.|
[M:4/4]"^Recitado" z2 BB _eeGB | G_E z B _dd d>c | cc z2 z2 _A2- | A2 GF _E/F/E/F/ G2- | %56
w: Ex- pug- na- te, de- bel-|la- te, lan- guo- res, et do-|lo- res, et-|* do- * lo- * * * *|
 G2 FE F2- ^F2 | G8 |:[K:Bb]"^AreaGrave" z8 | z4 z c_ec | =B>A Gc A2- A/c/B/A/ | %61
w: |res.||Ad fon- tem|gra- ti- ae tor- men- * * * *|
 G2- G/B/A/G/ F2- F/_A/G/F/ | EDCc _d3 e/f/ | =BGcd c2 Bc | c8 | z2 z c _d3 e/f/ | =BGcE E2 D2 | %67
w: |* * * ta, tor- men- *|* * * ta por- ta- *|re,|tor- men- * *|* * ta por- ta- *|
 C4 || z4 | z8 | z eee e (d/e/) c2 | d>e dc =B A/B/ G z/ G/ | c/=B/c/d/ cG d/c/d/e/ dG | %73
w: re.|||Et Chris- ti vul- ne- * ra|ve- ra cae- li mu- ne- * ra, O|ca- * * * * re, ca- * * * * *|
 e/d/e/d/ eG f/e/f/g/ f/e/ d/c/ | =B>A G2 z2 z d | e2 d2 e2 d2 | z2 z d f2 f/e/ d/c/ | %77
w: * * * * * * * * * * re, _ de- *|li- ti- ae, O|ca- re, ca- re,|O ca- re _ lae- *|
 =B>!courtesy!_A G2 z2 z c | _A/B/A/G/ F2 z2 z B | G/F/G/F/ E z z2 z B | !//-!c4 B4 | %81
w: ti- ti- ae, gus-|ta- * * * te, li-|ba- * * * te, gus-|ta- *|
 c/B/c/d/ e/d/e/f/ dB z e/d/ | c/B/_A/G/ F>E E2 z B | !//-!c4 B4 | c/B/c/d/ e/d/e/f/ dB z e/d/ | %85
w: * * * * * * * * * te, li- *|ba- * * * * * te, gus-|ta- *|* * * * * * * * * te, li- *|
 c/B/_A/G/ F>E E4 :| %86
w: ba- * * * * * te,|
V:2
 B,>A, B,>B,, D,B,, | F,>E, F,F,, A,,F,, | B,>A, B,B,, D,B,, | _E,C, F,2 F,,2 | B,,4 A,,2 | %5
 B,>A, B,B,, D,B,, | F,>E, F,F,, A,,F,, | B,>A, B,B,, D,B,, | _E,C, F,2 F,,2 | B,,4 A,,2 | %10
 B,,2 z2 z2 | _E,>D, E,C, D,E, | F,>E, F,D, _E,F, | G,>F, G,_E, F,G, | _A,>G, A,F, G,A, | %15
 B,>A, B,G, A,B, | C>B, CA, B,C | D>C DA, B,C | =B,2 z2 A,2 | C2 z2 C,2 | F,2 z2 z2 | %21
 B,>A, B,G, A,B, | _E,>D, E,C, D,E, | F,_E, F,2 F,,2 | B,>A, B,G, A,B, | _E,>D, E,C, D,E, | %26
 F,>E, F,G, A,F, | B,>A, B,G, A,B, | _E,>D, E,C, D,E, | F,_E, F,2 F,,2 | B,,4 !fermata!D2 | %31
 B,A, G,2 _E2 | ^F,3 E, D,2 | G,4 C,2 | D,4 D2 | B,A, G,2 _E2 | ^F,4 D,2 | G,,2 z2 G,2 | %38
 _E,D, C,2 _A,2 | =B,,4 G,,2 | C,4 !courtesy!_A,2 | _A,G, F,2 _D2 | E,4 C,2 | F,4 F,,2 | %44
 D,2 z2 D,2 | _E,2 z2 E,2 | C,4 z2 | D,4 D2 | B,2 A,G, _E2 | ^F,2 D,2 G,2 | C,2 D,2 D,,2 | G,,6 :| %52
[M:4/4] _E,8 | _E,8 | =E,4 F,4 | =B,,4 C,4 | _A,,6 =A,,2 | G,,8 |:[K:Bb] z C _EC ^CG,_A,F, | %59
 G,F,G,G,, C,2 z C, | G,F,=E,C, F,E,D,!courtesy!=B,, | !courtesy!=E,D,C,E, D,C,=B,,G,, | %62
 C,D,E,C, F,G,_A,F, | G,F,E,F, G,2 G,,2 | C,CEC _A,F,A,F, | =E,D,E,C, F,G,_A,F, | %66
 G,F,E,F, G,2 G,,2 | C,4 || z _A, CA, | G,E,_A,_D, E,D,E,E,, | _A,,2 E,2 _A,B,A,G, | %71
 F,2 z2 G,G,,G,F, | E,2 z2 =B,,2 z2 | C,2 z2 D,2 z2 | F,,2 z G, CC,=B,G, | C2 =B,2 C2 G,G, | %76
 CC,=B,A, CC,F,_A, | G,2 z G, E,/D,/E,/D,/ C,2 | F,,2 z F, D,/C,/D,/C,/ B,,2 | %79
 E,2 z B, G,/F,/G,/F,/ E,G, | _A,2 z G, A,2 z G, | _A,B,CA, B,A,G,E, | _A,F,B,B,, E,F,G,E, | %83
 _A,2 z G, A,2 z G, | _A,B,CA, B,A,G,E, | _A,E,B,B,, E,4 :| %86

